branding/TheGhostCat.svg

<svg height="1024pt" viewBox="0 0 1024 1024" width="1024pt" xmlns="http://www.w3.org/2000/svg" xmlns:xlink="http://www.w3.org/1999/xlink"><clipPath id="a"><path d="m0 0h1024v1024h-1024z"/></clipPath><g clip-path="url(#a)"><path d="m0 0h1024v1024h-1024z" fill="none"/><path d="m115.477 893.615c-28.579-72.9 28.785-266.999 103.903-454.98 10.031-25.102 20.11-49.071 30.238-71.906q119.713-269.91 248.489-328.698-6.886 51.737-5.877 71.15 1.01 19.414 3.754 34.61 40.114-.843 93.848 7.299 53.734 8.142 91.513 24.991 41.092-31.317 74.003-45.163 32.91-13.846 86.916-19.137-90.186 285.113-96.594 392.706c-10.484 176.028 5.326 290.361 8.757 340.448 22.758 3.014 44.93.447 78.163-12.015 19.146-7.18 44.795-28.708 37.051-64.496-5.018-23.19-36.369-27.301-54.89-24.701-7.664 1.076-23.124-.918-26.759-13.036-4.117-13.723 7.106-24.213 16.467-28.132 20.581-8.615 62.271-15.561 92.875 12.776 25.903 23.985 26.7 59.949 21.536 87.279-4.864 25.743-23.803 45.339-39.403 57.239-30.13 22.982-81.311 37.56-122.339 43.471-2.642 27.774-26.552 38.569-45.249 46.76-59.68 26.144-171.03 39.825-286.267 34.895-166.551-7.126-289.688-39.203-310.135-91.36z" style="fill:none;stroke-width:16;stroke-dasharray:32 52;stroke:#446adb;stroke-linejoin:round;stroke-linecap:round;stroke-miterlimit:3"/><g fill="#446adb"><path d="m457.666 376.382c-.37-2.222.185-4.444 1.574-6.295 1.296-1.851 3.333-3.055 5.554-3.333 2.222-.37 4.536.186 6.295 1.482 1.852 1.388 3.055 3.332 3.425 5.554.371 2.777 1.204 5.369 2.407 7.869.648 1.388 1.667 2.592 2.777 3.61 1.204.926 2.5 1.759 3.981 2.129 2.499.833 5.184 1.203 7.869 1.203 2.869 0 5.739-.462 8.516-1.203 1.481-.463 2.963-1.111 4.166-2.129 1.111-.833 2.037-1.852 2.685-3.055 1.018-1.759 1.758-3.703 2.221-5.74.463-2.221 1.759-4.165 3.611-5.461 1.851-1.204 4.165-1.667 6.387-1.204s4.166 1.759 5.369 3.611c1.296 1.851 1.759 4.165 1.296 6.387-.833 3.888-2.221 7.498-4.165 10.924-1.759 3.147-4.166 5.924-7.036 8.053-2.962 2.315-6.295 3.981-9.905 4.907-4.258 1.203-8.609 1.851-13.053 1.944-4.443 0-8.794-.648-12.96-1.944-3.703-1.111-7.128-3.055-9.998-5.555-2.962-2.499-5.369-5.554-7.035-8.979-1.944-4.073-3.333-8.332-3.981-12.775z"/><path d="m465.787 208.364c17.758 4.477 4.38 39.647-1.234 54.817-5.614 15.169-17.804 50.838-32.717 47.779-14.914-3.059-10.106-39.513-2.84-61.236 7.266-21.724 19.033-45.837 36.791-41.36z"/><path d="m618.531 231.414c17.758 4.476 7.762 39.301 2.149 54.471-5.614 15.169-17.804 50.838-32.717 47.779-14.914-3.059-10.106-39.513-2.84-61.236 7.266-21.724 15.65-45.491 33.408-41.014z"/></g></g></svg>

<?xml version="1.0" encoding="UTF-8" standalone="no"?><!-- Generator: Gravit.io --><svg xmlns="http://www.w3.org/2000/svg" xmlns:xlink="http://www.w3.org/1999/xlink" style="isolation:isolate" viewBox="0 0 1024 1024" width="1024pt" height="1024pt"><defs><clipPath id="_clipPath_ToGl1HY1Fgl16uUuXBUl0CTr2tw7ZLiN"><rect width="1024" height="1024"/></clipPath></defs><g clip-path="url(#_clipPath_ToGl1HY1Fgl16uUuXBUl0CTr2tw7ZLiN)"><rect width="1024" height="1024" style="fill:rgb(0,0,0)" fill-opacity="0"/><g><path d=" M 115.477 893.615 C 86.898 820.715 144.262 626.616 219.38 438.635 C 229.411 413.533 239.49 389.564 249.618 366.729 Q 369.331 96.819 498.107 38.031 Q 491.221 89.768 492.23 109.181 Q 493.24 128.595 495.984 143.791 Q 536.098 142.948 589.832 151.09 Q 643.566 159.232 681.345 176.081 Q 722.437 144.764 755.348 130.918 Q 788.258 117.072 842.264 111.781 Q 752.078 396.894 745.67 504.487 C 735.186 680.515 750.996 794.848 754.427 844.935 C 777.185 847.949 799.357 845.382 832.59 832.92 C 851.736 825.74 877.385 804.212 869.641 768.424 C 864.623 745.234 833.272 741.123 814.751 743.723 C 807.087 744.799 791.627 742.805 787.992 730.687 C 783.875 716.964 795.098 706.474 804.459 702.555 C 825.04 693.94 866.73 686.994 897.334 715.331 C 923.237 739.316 924.034 775.28 918.87 802.61 C 914.006 828.353 895.067 847.949 879.467 859.849 C 849.337 882.831 798.156 897.409 757.128 903.32 C 754.486 931.094 730.576 941.889 711.879 950.08 C 652.199 976.224 540.849 989.905 425.612 984.975 C 259.061 977.849 135.924 945.772 115.477 893.615 Z " fill="none" vector-effect="non-scaling-stroke" stroke-width="16" stroke-dasharray="32,52" stroke="rgb(68,106,219)" stroke-linejoin="round" stroke-linecap="round" stroke-miterlimit="3"/><path d=" M 457.666 376.382 C 457.296 374.16 457.851 371.938 459.24 370.087 C 460.536 368.236 462.573 367.032 464.794 366.754 C 467.016 366.384 469.33 366.94 471.089 368.236 C 472.941 369.624 474.144 371.568 474.514 373.79 C 474.885 376.567 475.718 379.159 476.921 381.659 C 477.569 383.047 478.588 384.251 479.698 385.269 C 480.902 386.195 482.198 387.028 483.679 387.398 C 486.178 388.231 488.863 388.601 491.548 388.601 C 494.417 388.601 497.287 388.139 500.064 387.398 C 501.545 386.935 503.027 386.287 504.23 385.269 C 505.341 384.436 506.267 383.417 506.915 382.214 C 507.933 380.455 508.673 378.511 509.136 376.474 C 509.599 374.253 510.895 372.309 512.747 371.013 C 514.598 369.809 516.912 369.346 519.134 369.809 C 521.356 370.272 523.3 371.568 524.503 373.42 C 525.799 375.271 526.262 377.585 525.799 379.807 C 524.966 383.695 523.578 387.305 521.634 390.731 C 519.875 393.878 517.468 396.655 514.598 398.784 C 511.636 401.099 508.303 402.765 504.693 403.691 C 500.435 404.894 496.084 405.542 491.64 405.635 C 487.197 405.635 482.846 404.987 478.68 403.691 C 474.977 402.58 471.552 400.636 468.682 398.136 C 465.72 395.637 463.313 392.582 461.647 389.157 C 459.703 385.084 458.314 380.825 457.666 376.382 Z " fill="rgb(68,106,219)"/><path d=" M 465.787 208.364 C 483.545 212.841 470.167 248.011 464.553 263.181 C 458.939 278.35 446.749 314.019 431.836 310.96 C 416.922 307.901 421.73 271.447 428.996 249.724 C 436.262 228 448.029 203.887 465.787 208.364 Z " fill="rgb(68,106,219)"/><path d=" M 618.531 231.414 C 636.289 235.89 626.293 270.715 620.68 285.885 C 615.066 301.054 602.876 336.723 587.963 333.664 C 573.049 330.605 577.857 294.151 585.123 272.428 C 592.389 250.704 600.773 226.937 618.531 231.414 Z " fill="rgb(68,106,219)"/></g></g></svg>
